_site/images/homepage/logos/bitbucket-large.svg

<svg fill="none" height="28" viewBox="0 0 30 28" width="30" xmlns="http://www.w3.org/2000/svg" xmlns:xlink="http://www.w3.org/1999/xlink"><linearGradient id="a" gradientUnits="userSpaceOnUse" x1="22.1992" x2="12.0064" y1="6.3749" y2="21.1747"><stop offset=".18" stop-color="#0052cc"/><stop offset="1" stop-color="#2684ff"/></linearGradient><path clip-rule="evenodd" d="m.227164.581286c.180633-.2136.444676-.334843.721299-.331206l27.328237.004772c.2766-.003637.5407.117607.7213.331207s.2594.497691.2151.776071l-3.975 24.87557c-.0741.4668-.4725.8079-.9363.8018h-19.0694c-.61803-.0052-1.14316-.4621-1.24539-1.0834l-3.9749268-24.59874c-.0442864-.27838.0344472-.562473.2150808-.776074zm11.372036 17.448014h6.0865l1.4748-8.77709h-9.20931z" fill="#2684ff" fill-rule="evenodd"/><path d="m28.0067 9.38281h-9.0936l-1.526 8.71229h-6.2981l-7.43666 8.6318c.23571.1993.53623.3102.84783.3127h19.73733c.48.006.8921-.3325.9689-.7959z" fill="url(#a)"/></svg>

<svg width="30" height="28" viewBox="0 0 30 28" fill="none" xmlns="http://www.w3.org/2000/svg">
<path fill-rule="evenodd" clip-rule="evenodd" d="M0.227164 0.581286C0.407797 0.367686 0.67184 0.246443 0.948463 0.25008L28.2767 0.254852C28.5533 0.251215 28.8174 0.372459 28.998 0.586059C29.1786 0.799659 29.2574 1.08375 29.2131 1.36213L25.2381 26.2377C25.164 26.7045 24.7656 27.0456 24.3018 27.0395H5.2324C4.61437 27.0343 4.08924 26.5774 3.98701 25.9561L0.0120832 1.35736C-0.0322032 1.07898 0.0465304 0.794887 0.227164 0.581286ZM11.5992 18.0293H17.6857L19.1605 9.25221H9.95119L11.5992 18.0293Z" fill="#2684FF"/>
<path d="M28.0067 9.38281H18.9131L17.3871 18.0951H11.089L3.65234 26.7269C3.88805 26.9262 4.18857 27.0371 4.50017 27.0396H24.2375C24.7175 27.0456 25.1296 26.7071 25.2064 26.2437L28.0067 9.38281Z" fill="url(#paint0_linear)"/>
<defs>
<linearGradient id="paint0_linear" x1="22.1992" y1="6.3749" x2="12.0064" y2="21.1747" gradientUnits="userSpaceOnUse">
<stop offset="0.18" stop-color="#0052CC"/>
<stop offset="1" stop-color="#2684FF"/>
</linearGradient>
</defs>
</svg>
